X:0
T:Major (do) Scales
M:4/4
L:1/8
K:Ab
"^A flat" ABcd efga|agfe dcBA||\
K:Eb
"^E flat"  EFGA Bcde|edcB AGFE||
K:Bb
"^B flat"  Bcde fgab|bagf edcB||\
K:F
"^F"       FGAB cdef|fedc BAGF||
K:C
"^C"       CDEF GABc|cBAG FEDC||
K:G
"^G"       GABc defg|gfed cBAG||\
K:D
"^D"       DEFG ABcd|dcBA GFED||
K:A
"^A"       ABcd efga|agfe dcBA||\
K:E
"^E"       EFGA Bcde|edcB AGFE|]

For comparison, it may be useful to describe these modes by the sequence
of pitches occurring in them with a common home note: I'll use A, since
this is one of the commonest in Scottish music and the home note of the
pipe chanter.  The major scale for A is AB^cde^f^ga.  Another way to
compare different scales is to pick a fixed absolute pitch set and say
which note in it becomes the tonal centre; I'll use the pitch set of the
pipe chanter.  "The Bens of Jura" uses every note it has, centring on D,
and pipers sometimes call the major mode the "D mode".  Because the word
"mode" is used in other ways in this document, I'll say the D major scale
is the "D-final" seven-note mode on the chanter.

